packages/icons/web/folder_small.svg

<svg width="24" height="24" viewBox="0 0 24 24" fill="none" xmlns="http://www.w3.org/2000/svg">
<path d="M19 8.5C19 7.94772 18.5523 7.5 18 7.5H12L10.7913 5.4855C10.6106 5.1843 10.2851 5 9.93381 5H6C5.44772 5 5 5.44772 5 6V17C5 17.5523 5.44772 18 6 18H18C18.5523 18 19 17.5523 19 17V8.5Z" stroke="#212933" stroke-width="2" stroke-linecap="round" stroke-linejoin="round"/>
</svg>

<svg width="24" height="24" fill="none" xmlns="http://www.w3.org/2000/svg">
    <path d="M19 8.5a1 1 0 00-1-1h-6l-1.209-2.014A1 1 0 009.934 5H6a1 1 0 00-1 1v11a1 1 0 001 1h12a1 1 0 001-1V8.5z" stroke="currentColor" stroke-width="2" stroke-linecap="round" stroke-linejoin="round"/>
</svg>
